src/images_karasa_jaga_svg/cmd/32/symbolshapes.puzzle.svg

<svg height="32" viewBox="0 0 32 32" width="32" xmlns="http://www.w3.org/2000/svg" xmlns:xlink="http://www.w3.org/1999/xlink"><linearGradient id="a" gradientUnits="userSpaceOnUse" x1="64.173065" x2="64.441208" y1="128" y2="0"><stop offset="0" stop-color="#fff"/><stop offset=".53340602" stop-color="#fff"/><stop offset=".83333331" stop-color="#f1f1f1"/><stop offset=".89999998" stop-color="#eaeaea"/><stop offset="1" stop-color="#dfdfdf"/></linearGradient><path d="m57.015625 14.660156a98.891586 49.532692 0 0 0 -29.185547 3.365235 49.532692 98.891586 0 0 1 5.19336 32.736328c-5.569977-1.053057-11.102422-2.162472-16.681641-3.154297-4.159249-.739395-7.6250001 2.543731-7.6250001 5.703125v19.960937c0 3.159394 3.5903851 6.955297 7.6250001 5.703125 5.493968-1.705093 11.115001-3.155092 16.880859-4.316406a49.532692 98.891586 0 0 1 -5.396484 35.296877 98.891586 49.532692 0 0 0 28.769531 3.41015c2.150194-8.39673-1.203241-15.5717-2.960937-23.099605-.719973-3.083516 3.276504-5.714844 7.347656-5.714844h6.125c4.071153 0 8.638818 2.823593 7.347656 5.714844-4.891746 10.953895-3.285012 17.035635-1.59375 23.052735a98.891586 49.532692 0 0 0 31.152342-3.93359 49.532692 98.891586 0 0 1 -5.130858-33.714848c4.172058.928368 8.425968 2.021602 12.775388 3.304687 4.05183 1.195297 7.625-2.543731 7.625-5.703125v-19.960937c0-3.159394-3.64151-7.109493-7.625-5.703125-4.37468 1.544478-8.60505 2.7919-12.7207 3.804687a49.532692 98.891586 0 0 1 5.09766-32.751953 98.891586 49.532692 0 0 0 -31.718754-3.972656c-1.417288 5.417804-2.212684 11.30305 2.138672 21.046875 1.291162 2.891251-3.276503 5.714844-7.347656 5.714844h-6.125c-4.071152 0-8.067629-2.631328-7.347656-5.714844 1.614777-6.915809 4.574004-13.533976 3.380859-21.074219z" style="stroke:#507dbe;stroke-width:3.405664;stroke-linecap:square;stroke-linejoin:bevel;stroke-opacity:.729412;fill:url(#a)" transform="scale(.25)"/></svg>

<?xml version="1.0" encoding="UTF-8" standalone="no"?>
<!-- Created with Inkscape (http://www.inkscape.org/) -->

<svg
   xmlns:dc="http://purl.org/dc/elements/1.1/"
   xmlns:cc="http://creativecommons.org/ns#"
   xmlns:rdf="http://www.w3.org/1999/02/22-rdf-syntax-ns#"
   xmlns:svg="http://www.w3.org/2000/svg"
   xmlns="http://www.w3.org/2000/svg"
   xmlns:xlink="http://www.w3.org/1999/xlink"
   xmlns:sodipodi="http://sodipodi.sourceforge.net/DTD/sodipodi-0.dtd"
   xmlns:inkscape="http://www.inkscape.org/namespaces/inkscape"
   version="1.1"
   id="svg2"
   width="128"
   height="128"
   viewBox="0 0 128 128"
   sodipodi:docname="symbolshapes.puzzle.svg"
   inkscape:export-filename="/home/rizmut/Dokumen/Rizmut/Github/libreoffice-style-karasa-jaga/build/images_karasa_jaga/cmd/32/symbolshapes.puzzle.png"
   inkscape:export-xdpi="24"
   inkscape:export-ydpi="24"
   inkscape:version="0.92.3 (unknown)">
  <metadata
     id="metadata8">
    <rdf:RDF>
      <cc:Work
         rdf:about="">
        <dc:format>image/svg+xml</dc:format>
        <dc:type
           rdf:resource="http://purl.org/dc/dcmitype/StillImage" />
        <dc:title />
      </cc:Work>
    </rdf:RDF>
  </metadata>
  <defs
     id="defs6">
    <linearGradient
       inkscape:collect="always"
       xlink:href="#linearGradient3369"
       id="linearGradient2969"
       x1="64.173065"
       y1="128"
       x2="64.441208"
       y2="0"
       gradientUnits="userSpaceOnUse" />
    <linearGradient
       id="linearGradient3369">
      <stop
         id="stop3372"
         offset="0"
         style="stop-color:#ffffff;stop-opacity:1;" />
      <stop
         style="stop-color:#ffffff;stop-opacity:1;"
         offset="0.53340602"
         id="stop3374" />
      <stop
         style="stop-color:#f1f1f1;stop-opacity:1;"
         offset="0.83333331"
         id="stop3376" />
      <stop
         id="stop3378"
         offset="0.89999998"
         style="stop-color:#eaeaea;stop-opacity:1;" />
      <stop
         id="stop3384"
         offset="1"
         style="stop-color:#dfdfdf;stop-opacity:1;" />
    </linearGradient>
  </defs>
  <sodipodi:namedview
     pagecolor="#ffffff"
     bordercolor="#666666"
     borderopacity="1"
     objecttolerance="10"
     gridtolerance="10"
     guidetolerance="10"
     inkscape:pageopacity="0"
     inkscape:pageshadow="2"
     inkscape:window-width="1366"
     inkscape:window-height="706"
     id="namedview4"
     showgrid="false"
     inkscape:snap-page="true"
     inkscape:snap-global="true"
     inkscape:zoom="1.7320077"
     inkscape:cx="81.344252"
     inkscape:cy="114.69499"
     inkscape:window-x="0"
     inkscape:window-y="0"
     inkscape:window-maximized="1"
     inkscape:current-layer="svg2">
    <inkscape:grid
       type="xygrid"
       id="grid837" />
  </sodipodi:namedview>
  <path
     style="opacity:1;fill:url(#linearGradient2969);fill-opacity:1;stroke:#507dbe;stroke-width:3.40566444;stroke-linecap:square;stroke-linejoin:bevel;stroke-miterlimit:4;stroke-dasharray:none;stroke-dashoffset:0;stroke-opacity:0.72941176"
     d="M 57.015625 14.660156 A 98.891586 49.532692 0 0 0 27.830078 18.025391 A 49.532692 98.891586 0 0 1 33.023438 50.761719 C 27.453461 49.708662 21.921016 48.599247 16.341797 47.607422 C 12.182548 46.868027 8.7167969 50.151153 8.7167969 53.310547 L 8.7167969 73.271484 C 8.7167969 76.430878 12.307182 80.226781 16.341797 78.974609 C 21.835765 77.269516 27.456798 75.819517 33.222656 74.658203 A 49.532692 98.891586 0 0 1 27.826172 109.95508 A 98.891586 49.532692 0 0 0 56.595703 113.36523 C 58.745897 104.9685 55.392462 97.79353 53.634766 90.265625 C 52.914793 87.182109 56.91127 84.550781 60.982422 84.550781 L 67.107422 84.550781 C 71.178575 84.550781 75.74624 87.374374 74.455078 90.265625 C 69.563332 101.21952 71.170066 107.30126 72.861328 113.31836 A 98.891586 49.532692 0 0 0 104.01367 109.38477 A 49.532692 98.891586 0 0 1 98.882812 75.669922 C 103.05487 76.59829 107.30878 77.691524 111.6582 78.974609 C 115.71003 80.169906 119.2832 76.430878 119.2832 73.271484 L 119.2832 53.310547 C 119.2832 50.151153 115.64169 46.201054 111.6582 47.607422 C 107.28352 49.1519 103.05315 50.399322 98.9375 51.412109 A 49.532692 98.891586 0 0 1 104.03516 18.660156 A 98.891586 49.532692 0 0 0 72.316406 14.6875 C 70.899118 20.105304 70.103722 25.99055 74.455078 35.734375 C 75.74624 38.625626 71.178575 41.449219 67.107422 41.449219 L 60.982422 41.449219 C 56.91127 41.449219 52.914793 38.817891 53.634766 35.734375 C 55.249543 28.818566 58.20877 22.200399 57.015625 14.660156 z "
     id="path2943" />
</svg>
